X:386
T:Reel 386
M:4/4
K:Gmaj
L:1/8
dc|B>G (3GGG BGdc|B>G (3GGG d2cB|c>A (3AAA cAeA|c>A (3AAA e2dc|B>G (3GGG BGdc|B>G (3GGG d2cB|cedc BGAF|DGGF G2|BA|Gggf gedB|Gggf gedB|Aaa^g aecB|Aaa^g aecA|Gggf gedB|Gggf gfga|gfef gfeg|bgaf gedc|B<GAd BdcA|Bgdf edcB|Aaa^g aecB|Aaa^g aecA|BAGB dedc|BGdf gedc|BABc defa|bgaf gedc|
